X:195
T:I Will If I Can
R:jig
Z:id:hn-jig-195
M:6/8
K:G
D|GBd gdB|ded d2c|~B3 BAG|FAA AFD|GBd gdB|def g2f|edc BcA|BGG G2:|
|:d|g2d edB|ded def|g2d edB|ABA ABd|g2d edB|def g2f|edc BcA|BGF G2:|

